svgs/sharp-solid/up-down-left-right.svg

<svg xmlns="http://www.w3.org/2000/svg" viewBox="0 0 512 512"><!--! Font Awesome Pro 6.6.0 by @fontawesome - https://fontawesome.com License - https://fontawesome.com/license (Commercial License) Copyright 2024 Fonticons, Inc. --><path d="M160 96L256 0l96 96 0 32-64 0 0 96 96 0 0-64 32 0 96 96-96 96-32 0 0-64-96 0 0 96 64 0 0 32-96 96-96-96 0-32 64 0 0-96-96 0 0 64-32 0L0 256l96-96 32 0 0 64 96 0 0-96-64 0 0-32z"/></svg>

<svg xmlns="http://www.w3.org/2000/svg" viewBox="0 0 512 512"><!--! Font Awesome Pro 6.4.2 by @fontawesome - https://fontawesome.com License - https://fontawesome.com/license (Commercial License) Copyright 2023 Fonticons, Inc. --><path d="M160 96L256 0l96 96v32H288v96h96V160h32l96 96-96 96-32 0V288H288v96h64v32l-96 96-96-96V384h64V288H128v64H96L0 256l96-96h32v64h96V128H160V96z"/></svg>
